X: 335
%
U:~=!turn!
T: An gabh Thu Bean a Dho\`i'll bhig?
T: Little Donald's Wife
T: Will you take a Wife, little Donald?
C:
O:Scotland
B:Keith Norman MacDonald : "The Skye collection of the best reels & strathspeys extant" : 1887
Z:Ralph Palmer
R:Reel
M:C|
L:1/8
K:G mixolydian
A | EA-A^G AB{AB}cA | EA-A^G A2 A>^G | EA-A^G ABce | dcBA {E^F}G2 G ::
E | {/B}c2 ec {Bc}dcBG | {AB}c2 (ec) TA2 A>B | cBcd e^fge | dcBA {E^F}G2 G :|


